!!!COM: Porumbescu, Ciprian 
!!!CDT: 1835-1883
!!!OTL: National Anthem, Albania
!!!ENC: Davis, Matthew J.
!!Vocal Line Only
**kern
*clefG2 
*G:
*k[f#] 
*M4/4
=1-
2r
4r
4d
=2
4.g
8d
8B
8d
8.g
16a
=3
4b
4g
8r
8g
8f#
8g
=4
4.a
8g#
4a
4dd
=5
2b
4r
4d
=6
4.g
8d
8B
8d
8.g
16a
=7
4b
4g
8r
8g
8f#
8e
=8
4.a
8g
4e
4f
=9
2d
4r
4d
==10
!The repeat section in measures 10-17 has been realized
!CHORUS
4.a
8a
8g#
8a
8b
8cc
=11
(4.dd
8b)
8g
8g
8g
8g
=12
4a
4b
4cc
4dd
=13
2.ee
4ee
=14
4.dd
8b
4cc
4a
=15
8.b
16a
8.b
16cc
4dd
4ee
=16
4.dd
8b
8cc
8b
8a
8a
=17
!(first ending)
2.g
4d
==10
!The repeat section in measures 10-17 has been realized
!CHORUS
4.a
8a
8g#
8a
8b
8cc
=11
(4.dd
8b)
8g
8g
8g
8g
=12
4a
4b
4cc
4dd
=13
2.ee
4ee
=14
4.dd
8b
4cc
4a
=15
8.b
16a
8.b
16cc
4dd
4ee
=16
4.dd
8b
8cc
8b
8a
8a
==18
!(second ending)
2.g
==|!
*-
